X:776
T:Waters of Kylesku
C:Joe Buchanan's Scottish Tome - Page 532.2
I:532 2
Z:Carl Allison
R:Slow Air
L:1/4
M:3/4
K:D
A | "D"(F2 E) | "Bm"(D2 F) | "D"A2 A | "D7"(F2 A) | "G"(d2 B) | "A"(c2 B) | "D"A3- | A2 F |
"D"A2 A | "G"(B2 A) | "D"(A2 F) | "Bm"(D2 F) | "D"A2 A | "Em"(G2 F) | "A7"E3- | E2 A |
"D"(F2 E) | "Bm"(D2 F) | "D"A2 A | "D7"(F2 A) | "G"d2 d | "A"(c2 B) | "D"A3- | A2 F |
"D"A2 A | "G"(B2 c) | "Em"(d2 B) | "D"(A2 G) | "D"(F A2) | "D"(F2 "A7"E) | "D"D3- | D2 :|

